assets/dist/images/landing-pages/workflows/waves.svg

<svg xmlns="http://www.w3.org/2000/svg" xmlns:xlink="http://www.w3.org/1999/xlink" width="168" height="164" viewBox="0 0 168 164">
  <defs>
    <rect id="waves-a" width="168" height="168" x="0" y="0"/>
  </defs>
  <g fill="none" fill-rule="evenodd" transform="translate(0 -2)">
    <mask id="waves-b" fill="#fff">
      <use xlink:href="#waves-a"/>
    </mask>
    <path stroke="#CBEFF5" stroke-linecap="round" stroke-linejoin="round" stroke-width="3" d="M-6,122.598716 L18.971398,122.598716 C30.017093,122.598716 38.971398,113.644411 38.971398,102.598716 L38.971398,97.4440491 C38.971398,86.3983541 47.925703,77.4440491 58.971398,77.4440491 L63.8685516,77.4440491 C74.9142466,77.4440491 83.8685516,68.4897441 83.8685516,57.4440491 L83.8685516,52.2921723 C83.8685516,41.2464773 92.8228566,32.2921723 103.868552,32.2921723 L108.742594,32.2921723 C119.788289,32.2921723 128.742594,23.3378673 128.742594,12.2921723 L128.742594,7.34488494 C128.742594,-3.70081006 137.696899,-12.6551151 148.742594,-12.6551151 L154.012486,-12.6551151 C165.058181,-12.6551151 174.012486,-21.6094201 174.012486,-32.6551151 L174.012486,-57.7704242" mask="url(#waves-b)" transform="rotate(45 84.006 32.414)"/>
    <path stroke="#CBEFF5" stroke-linecap="round" stroke-linejoin="round" stroke-width="3" d="M-6,104.598716 L18.971398,104.598716 C30.017093,104.598716 38.971398,95.6444114 38.971398,84.5987164 L38.971398,79.4440491 C38.971398,68.3983541 47.925703,59.4440491 58.971398,59.4440491 L63.8685516,59.4440491 C74.9142466,59.4440491 83.8685516,50.4897441 83.8685516,39.4440491 L83.8685516,34.2921723 C83.8685516,23.2464773 92.8228566,14.2921723 103.868552,14.2921723 L108.742594,14.2921723 C119.788289,14.2921723 128.742594,5.33786733 128.742594,-5.70782767 L128.742594,-10.6551151 C128.742594,-21.7008101 137.696899,-30.6551151 148.742594,-30.6551151 L154.012486,-30.6551151 C165.058181,-30.6551151 174.012486,-39.6094201 174.012486,-50.6551151 L174.012486,-75.7704242" mask="url(#waves-b)" transform="rotate(45 84.006 14.414)"/>
    <path stroke="#CBEFF5" stroke-linecap="round" stroke-linejoin="round" stroke-width="3" d="M-6,86.5987164 L18.971398,86.5987164 C30.017093,86.5987164 38.971398,77.6444114 38.971398,66.5987164 L38.971398,61.4440491 C38.971398,50.3983541 47.925703,41.4440491 58.971398,41.4440491 L63.8685516,41.4440491 C74.9142466,41.4440491 83.8685516,32.4897441 83.8685516,21.4440491 L83.8685516,16.2921723 C83.8685516,5.24647734 92.8228566,-3.70782767 103.868552,-3.70782767 L108.742594,-3.70782767 C119.788289,-3.70782767 128.742594,-12.6621327 128.742594,-23.7078277 L128.742594,-28.6551151 C128.742594,-39.7008101 137.696899,-48.6551151 148.742594,-48.6551151 L154.012486,-48.6551151 C165.058181,-48.6551151 174.012486,-57.6094201 174.012486,-68.6551151 L174.012486,-93.7704242" mask="url(#waves-b)" transform="rotate(45 84.006 -3.586)"/>
    <path stroke="#CBEFF5" stroke-linecap="round" stroke-linejoin="round" stroke-width="3" d="M-6,176.598716 L18.971398,176.598716 C30.017093,176.598716 38.971398,167.644411 38.971398,156.598716 L38.971398,151.444049 C38.971398,140.398354 47.925703,131.444049 58.971398,131.444049 L63.8685516,131.444049 C74.9142466,131.444049 83.8685516,122.489744 83.8685516,111.444049 L83.8685516,106.292172 C83.8685516,95.2464773 92.8228566,86.2921723 103.868552,86.2921723 L108.742594,86.2921723 C119.788289,86.2921723 128.742594,77.3378673 128.742594,66.2921723 L128.742594,61.3448849 C128.742594,50.2991899 137.696899,41.3448849 148.742594,41.3448849 L154.012486,41.3448849 C165.058181,41.3448849 174.012486,32.3905799 174.012486,21.3448849 L174.012486,-3.77042424" mask="url(#waves-b)" transform="rotate(45 84.006 86.414)"/>
    <path stroke="#CBEFF5" stroke-linecap="round" stroke-linejoin="round" stroke-width="3" d="M-6,158.598716 L18.971398,158.598716 C30.017093,158.598716 38.971398,149.644411 38.971398,138.598716 L38.971398,133.444049 C38.971398,122.398354 47.925703,113.444049 58.971398,113.444049 L63.8685516,113.444049 C74.9142466,113.444049 83.8685516,104.489744 83.8685516,93.4440491 L83.8685516,88.2921723 C83.8685516,77.2464773 92.8228566,68.2921723 103.868552,68.2921723 L108.742594,68.2921723 C119.788289,68.2921723 128.742594,59.3378673 128.742594,48.2921723 L128.742594,43.3448849 C128.742594,32.2991899 137.696899,23.3448849 148.742594,23.3448849 L154.012486,23.3448849 C165.058181,23.3448849 174.012486,14.3905799 174.012486,3.34488494 L174.012486,-21.7704242" mask="url(#waves-b)" transform="rotate(45 84.006 68.414)"/>
    <path stroke="#CBEFF5" stroke-linecap="round" stroke-linejoin="round" stroke-width="3" d="M-6,140.598716 L18.971398,140.598716 C30.017093,140.598716 38.971398,131.644411 38.971398,120.598716 L38.971398,115.444049 C38.971398,104.398354 47.925703,95.4440491 58.971398,95.4440491 L63.8685516,95.4440491 C74.9142466,95.4440491 83.8685516,86.4897441 83.8685516,75.4440491 L83.8685516,70.2921723 C83.8685516,59.2464773 92.8228566,50.2921723 103.868552,50.2921723 L108.742594,50.2921723 C119.788289,50.2921723 128.742594,41.3378673 128.742594,30.2921723 L128.742594,25.3448849 C128.742594,14.2991899 137.696899,5.34488494 148.742594,5.34488494 L154.012486,5.34488494 C165.058181,5.34488494 174.012486,-3.60942006 174.012486,-14.6551151 L174.012486,-39.7704242" mask="url(#waves-b)" transform="rotate(45 84.006 50.414)"/>
    <path stroke="#CBEFF5" stroke-linecap="round" stroke-linejoin="round" stroke-width="3" d="M-6,230.598716 L18.971398,230.598716 C30.017093,230.598716 38.971398,221.644411 38.971398,210.598716 L38.971398,205.444049 C38.971398,194.398354 47.925703,185.444049 58.971398,185.444049 L63.8685516,185.444049 C74.9142466,185.444049 83.8685516,176.489744 83.8685516,165.444049 L83.8685516,160.292172 C83.8685516,149.246477 92.8228566,140.292172 103.868552,140.292172 L108.742594,140.292172 C119.788289,140.292172 128.742594,131.337867 128.742594,120.292172 L128.742594,115.344885 C128.742594,104.29919 137.696899,95.3448849 148.742594,95.3448849 L154.012486,95.3448849 C165.058181,95.3448849 174.012486,86.3905799 174.012486,75.3448849 L174.012486,50.2295758" mask="url(#waves-b)" transform="rotate(45 84.006 140.414)"/>
    <path stroke="#CBEFF5" stroke-linecap="round" stroke-linejoin="round" stroke-width="3" d="M-6,212.598716 L18.971398,212.598716 C30.017093,212.598716 38.971398,203.644411 38.971398,192.598716 L38.971398,187.444049 C38.971398,176.398354 47.925703,167.444049 58.971398,167.444049 L63.8685516,167.444049 C74.9142466,167.444049 83.8685516,158.489744 83.8685516,147.444049 L83.8685516,142.292172 C83.8685516,131.246477 92.8228566,122.292172 103.868552,122.292172 L108.742594,122.292172 C119.788289,122.292172 128.742594,113.337867 128.742594,102.292172 L128.742594,97.3448849 C128.742594,86.2991899 137.696899,77.3448849 148.742594,77.3448849 L154.012486,77.3448849 C165.058181,77.3448849 174.012486,68.3905799 174.012486,57.3448849 L174.012486,32.2295758" mask="url(#waves-b)" transform="rotate(45 84.006 122.414)"/>
    <path stroke="#CBEFF5" stroke-linecap="round" stroke-linejoin="round" stroke-width="3" d="M-6,194.598716 L18.971398,194.598716 C30.017093,194.598716 38.971398,185.644411 38.971398,174.598716 L38.971398,169.444049 C38.971398,158.398354 47.925703,149.444049 58.971398,149.444049 L63.8685516,149.444049 C74.9142466,149.444049 83.8685516,140.489744 83.8685516,129.444049 L83.8685516,124.292172 C83.8685516,113.246477 92.8228566,104.292172 103.868552,104.292172 L108.742594,104.292172 C119.788289,104.292172 128.742594,95.3378673 128.742594,84.2921723 L128.742594,79.3448849 C128.742594,68.2991899 137.696899,59.3448849 148.742594,59.3448849 L154.012486,59.3448849 C165.058181,59.3448849 174.012486,50.3905799 174.012486,39.3448849 L174.012486,14.2295758" mask="url(#waves-b)" transform="rotate(45 84.006 104.414)"/>
  </g>
</svg>

<svg xmlns="http://www.w3.org/2000/svg" xmlns:xlink="http://www.w3.org/1999/xlink" width="168" height="164" viewBox="0 0 168 164"><defs><path id="a" d="M0 0h168v168H0z"/></defs><g fill="none" fill-rule="evenodd" transform="translate(0 -2)"><mask id="b" fill="#fff"><use xlink:href="#a"/></mask><path stroke="#CBEFF5" stroke-linecap="round" stroke-linejoin="round" stroke-width="3" d="M-6 122.599h24.971c11.046 0 20-8.955 20-20v-5.155c0-11.046 8.955-20 20-20h4.898c11.045 0 20-8.954 20-20v-5.152c0-11.046 8.954-20 20-20h4.874c11.045 0 20-8.954 20-20V7.345c0-11.046 8.954-20 20-20h5.27c11.045 0 20-8.954 20-20V-57.77" mask="url(#b)" transform="rotate(45 84.006 32.414)"/><path stroke="#CBEFF5" stroke-linecap="round" stroke-linejoin="round" stroke-width="3" d="M-6 104.599h24.971c11.046 0 20-8.955 20-20v-5.155c0-11.046 8.955-20 20-20h4.898c11.045 0 20-8.954 20-20v-5.152c0-11.046 8.954-20 20-20h4.874c11.045 0 20-8.954 20-20v-4.947c0-11.046 8.954-20 20-20h5.27c11.045 0 20-8.954 20-20V-75.77" mask="url(#b)" transform="rotate(45 84.006 14.414)"/><path stroke="#CBEFF5" stroke-linecap="round" stroke-linejoin="round" stroke-width="3" d="M-6 86.599h24.971c11.046 0 20-8.955 20-20v-5.155c0-11.046 8.955-20 20-20h4.898c11.045 0 20-8.954 20-20v-5.152c0-11.046 8.954-20 20-20h4.874c11.045 0 20-8.954 20-20v-4.947c0-11.046 8.954-20 20-20h5.27c11.045 0 20-8.954 20-20V-93.77" mask="url(#b)" transform="rotate(45 84.006 -3.586)"/><path stroke="#CBEFF5" stroke-linecap="round" stroke-linejoin="round" stroke-width="3" d="M-6 176.599h24.971c11.046 0 20-8.955 20-20v-5.155c0-11.046 8.955-20 20-20h4.898c11.045 0 20-8.954 20-20v-5.152c0-11.046 8.954-20 20-20h4.874c11.045 0 20-8.954 20-20v-4.947c0-11.046 8.954-20 20-20h5.27c11.045 0 20-8.954 20-20V-3.77" mask="url(#b)" transform="rotate(45 84.006 86.414)"/><path stroke="#CBEFF5" stroke-linecap="round" stroke-linejoin="round" stroke-width="3" d="M-6 158.599h24.971c11.046 0 20-8.955 20-20v-5.155c0-11.046 8.955-20 20-20h4.898c11.045 0 20-8.954 20-20v-5.152c0-11.046 8.954-20 20-20h4.874c11.045 0 20-8.954 20-20v-4.947c0-11.046 8.954-20 20-20h5.27c11.045 0 20-8.954 20-20V-21.77" mask="url(#b)" transform="rotate(45 84.006 68.414)"/><path stroke="#CBEFF5" stroke-linecap="round" stroke-linejoin="round" stroke-width="3" d="M-6 140.599h24.971c11.046 0 20-8.955 20-20v-5.155c0-11.046 8.955-20 20-20h4.898c11.045 0 20-8.954 20-20v-5.152c0-11.046 8.954-20 20-20h4.874c11.045 0 20-8.954 20-20v-4.947c0-11.046 8.954-20 20-20h5.27c11.045 0 20-8.954 20-20V-39.77" mask="url(#b)" transform="rotate(45 84.006 50.414)"/><path stroke="#CBEFF5" stroke-linecap="round" stroke-linejoin="round" stroke-width="3" d="M-6 230.599h24.971c11.046 0 20-8.955 20-20v-5.155c0-11.046 8.955-20 20-20h4.898c11.045 0 20-8.954 20-20v-5.152c0-11.046 8.954-20 20-20h4.874c11.045 0 20-8.954 20-20v-4.947c0-11.046 8.954-20 20-20h5.27c11.045 0 20-8.954 20-20V50.23" mask="url(#b)" transform="rotate(45 84.006 140.414)"/><path stroke="#CBEFF5" stroke-linecap="round" stroke-linejoin="round" stroke-width="3" d="M-6 212.599h24.971c11.046 0 20-8.955 20-20v-5.155c0-11.046 8.955-20 20-20h4.898c11.045 0 20-8.954 20-20v-5.152c0-11.046 8.954-20 20-20h4.874c11.045 0 20-8.954 20-20v-4.947c0-11.046 8.954-20 20-20h5.27c11.045 0 20-8.954 20-20V32.23" mask="url(#b)" transform="rotate(45 84.006 122.414)"/><path stroke="#CBEFF5" stroke-linecap="round" stroke-linejoin="round" stroke-width="3" d="M-6 194.599h24.971c11.046 0 20-8.955 20-20v-5.155c0-11.046 8.955-20 20-20h4.898c11.045 0 20-8.954 20-20v-5.152c0-11.046 8.954-20 20-20h4.874c11.045 0 20-8.954 20-20v-4.947c0-11.046 8.954-20 20-20h5.27c11.045 0 20-8.954 20-20V14.23" mask="url(#b)" transform="rotate(45 84.006 104.414)"/></g></svg>
